flaticon/game/metroid.svg

<svg xmlns="http://www.w3.org/2000/svg" width="32" height="32" viewBox="0 0 24 24">
    <path d="M 23.769531 14.195312 C 23.773438 14.152344 23.777344 14.109375 23.777344 14.066406 L 23.777344 12.210938 C 23.777344 11.402344 23.5 10.609375 22.996094 9.976562 L 21.511719 8.652344 C 21.507812 8.632812 21.507812 8.613281 21.507812 8.59375 C 21.488281 8.394531 21.449219 8.203125 21.417969 8.007812 C 21.398438 7.890625 21.390625 7.769531 21.367188 7.65625 C 21.363281 7.652344 21.363281 7.652344 21.363281 7.652344 C 20.480469 3.292969 16.617188 0 12 0 C 7.382812 0 3.519531 3.292969 2.636719 7.652344 C 2.617188 7.738281 2.609375 7.828125 2.597656 7.914062 C 2.558594 8.140625 2.515625 8.363281 2.492188 8.59375 C 2.492188 8.613281 2.492188 8.632812 2.488281 8.648438 L 1.058594 9.921875 L 1.003906 9.976562 C 0.5 10.609375 0.222656 11.402344 0.222656 12.210938 L 0.222656 14.066406 C 0.222656 14.109375 0.226562 14.152344 0.230469 14.195312 C 0.226562 14.222656 0.230469 14.253906 0.234375 14.285156 C 0.261719 15.300781 0.476562 16.242188 0.894531 17.074219 C 1.5625 18.417969 2.65625 19.421875 4.058594 19.96875 L 4.214844 20.03125 L 4.371094 19.976562 C 4.398438 19.964844 4.671875 19.863281 5.015625 19.597656 C 5.683594 20.113281 8.03125 21.839844 10.171875 22.484375 L 10.289062 23.113281 C 10.371094 23.628906 10.8125 24 11.332031 24 L 13.554688 24 C 14.074219 24 14.515625 23.628906 14.601562 23.113281 L 14.730469 22.324219 C 16.632812 21.597656 18.421875 20.113281 18.996094 19.609375 C 19.335938 19.867188 19.605469 19.964844 19.632812 19.976562 L 19.785156 20.03125 L 19.941406 19.96875 C 21.34375 19.421875 22.4375 18.421875 23.105469 17.078125 C 23.523438 16.242188 23.738281 15.300781 23.765625 14.285156 C 23.769531 14.253906 23.773438 14.222656 23.769531 14.195312 Z M 22.890625 12.210938 L 22.890625 13.921875 L 20.8125 14.753906 L 18.792969 17.980469 C 18.753906 17.90625 18.714844 17.832031 18.683594 17.753906 C 18.660156 17.695312 18.640625 17.632812 18.621094 17.570312 C 18.59375 17.492188 18.566406 17.414062 18.542969 17.332031 C 18.519531 17.238281 18.5 17.132812 18.480469 17.03125 C 18.46875 16.976562 18.457031 16.921875 18.445312 16.867188 L 18.472656 16.582031 C 19.914062 15.257812 20.921875 13.507812 21.339844 11.558594 C 21.339844 11.550781 21.34375 11.546875 21.347656 11.539062 C 21.363281 11.457031 21.375 11.378906 21.390625 11.296875 C 21.410156 11.1875 21.429688 11.078125 21.449219 10.964844 C 21.453125 10.9375 21.453125 10.910156 21.457031 10.882812 C 21.464844 10.839844 21.46875 10.792969 21.476562 10.746094 C 21.488281 10.644531 21.5 10.539062 21.511719 10.433594 C 21.519531 10.363281 21.523438 10.292969 21.527344 10.21875 C 21.535156 10.125 21.542969 10.027344 21.542969 9.929688 C 21.546875 9.910156 21.550781 9.894531 21.550781 9.875 L 22.320312 10.558594 C 22.6875 11.03125 22.890625 11.613281 22.890625 12.210938 Z M 4.605469 14.046875 C 4.550781 13.957031 4.496094 13.863281 4.441406 13.769531 C 4.328125 13.566406 4.222656 13.363281 4.125 13.148438 C 4.113281 13.125 4.101562 13.105469 4.089844 13.078125 C 4.007812 12.894531 3.941406 12.707031 3.871094 12.515625 C 5.4375 13.554688 6.453125 14.074219 7.15625 14.429688 C 8.449219 15.09375 8.449219 15.09375 9.152344 17.585938 C 9.15625 17.597656 9.160156 17.617188 9.164062 17.632812 C 7.328125 17.007812 5.816406 15.839844 4.792969 14.332031 C 4.730469 14.238281 4.664062 14.144531 4.605469 14.046875 Z M 3.5 11.191406 C 3.46875 11.03125 3.441406 10.871094 3.421875 10.710938 C 3.410156 10.632812 3.394531 10.558594 3.386719 10.480469 C 3.386719 10.457031 3.382812 10.429688 3.378906 10.40625 C 3.351562 10.125 3.332031 9.839844 3.332031 9.554688 C 3.332031 9.511719 3.339844 9.464844 3.339844 9.421875 C 3.339844 9.390625 3.34375 9.359375 3.34375 9.320312 C 3.351562 9.136719 3.355469 8.953125 3.371094 8.769531 C 3.378906 8.6875 3.390625 8.601562 3.402344 8.519531 C 3.410156 8.433594 3.425781 8.351562 3.441406 8.265625 L 9.027344 9.324219 C 9.222656 9.359375 9.417969 9.265625 9.507812 9.085938 L 10.273438 7.554688 L 14.167969 7.554688 L 14.9375 9.085938 C 15.027344 9.265625 15.226562 9.363281 15.421875 9.324219 L 20.5625 8.269531 C 20.574219 8.355469 20.589844 8.4375 20.597656 8.519531 C 20.609375 8.605469 20.621094 8.6875 20.628906 8.773438 C 20.640625 8.941406 20.648438 9.113281 20.652344 9.285156 L 20.652344 9.292969 C 20.652344 9.328125 20.65625 9.363281 20.660156 9.398438 C 20.660156 9.449219 20.667969 9.503906 20.667969 9.554688 C 20.667969 9.839844 20.648438 10.121094 20.621094 10.402344 C 20.617188 10.429688 20.613281 10.457031 20.609375 10.484375 C 20.601562 10.558594 20.589844 10.632812 20.578125 10.707031 C 20.558594 10.867188 20.53125 11.03125 20.5 11.1875 L 20.414062 11.25 C 18.871094 12.316406 17.8125 12.972656 17.109375 13.40625 C 15.425781 14.449219 15.347656 14.550781 15.046875 16.0625 C 14.960938 16.488281 14.851562 17.035156 14.664062 17.777344 L 10.128906 17.777344 C 10.089844 17.628906 10.046875 17.480469 10.007812 17.34375 C 9.242188 14.636719 9.199219 14.476562 7.558594 13.640625 C 6.765625 13.234375 5.570312 12.621094 3.585938 11.25 Z M 17.617188 16.144531 L 17.613281 16.15625 C 17.035156 16.652344 16.382812 17.066406 15.671875 17.398438 C 15.78125 16.929688 15.855469 16.550781 15.917969 16.238281 C 16.15625 15.042969 16.15625 15.042969 17.578125 14.164062 C 18.160156 13.804688 18.988281 13.289062 20.128906 12.523438 C 19.636719 13.851562 18.832031 15.0625 17.75 16.027344 Z M 14.4375 18.664062 L 14.292969 19.554688 L 10.539062 19.554688 L 10.371094 18.652344 Z M 17.109375 8.070312 L 17.109375 5.515625 L 18.636719 3.992188 C 19.457031 4.96875 20.058594 6.128906 20.382812 7.398438 Z M 16.351562 5.019531 C 16.269531 5.101562 16.222656 5.214844 16.222656 5.332031 L 16.222656 8.253906 L 15.578125 8.386719 L 14.839844 6.914062 C 14.765625 6.761719 14.613281 6.667969 14.445312 6.667969 L 12.667969 6.667969 L 12.667969 0.921875 C 14.742188 1.082031 16.617188 1.972656 18.027344 3.34375 Z M 11.777344 6.667969 L 10 6.667969 C 9.832031 6.667969 9.679688 6.761719 9.601562 6.914062 L 8.863281 8.390625 L 8.222656 8.265625 L 8.222656 5.332031 C 8.222656 5.214844 8.175781 5.101562 8.09375 5.019531 L 6.203125 3.132812 C 7.691406 1.789062 9.636719 0.957031 11.777344 0.902344 Z M 7.332031 5.515625 L 7.332031 8.097656 L 3.617188 7.394531 C 3.972656 6.019531 4.652344 4.78125 5.574219 3.757812 Z M 10.863281 21.332031 L 10.703125 20.445312 L 14.144531 20.445312 L 13.996094 21.332031 Z M 1.679688 10.558594 L 2.449219 9.875 C 2.449219 9.890625 2.453125 9.90625 2.453125 9.925781 C 2.457031 10.03125 2.464844 10.132812 2.472656 10.238281 C 2.476562 10.308594 2.484375 10.378906 2.488281 10.449219 C 2.5 10.550781 2.511719 10.652344 2.523438 10.753906 C 2.53125 10.792969 2.535156 10.835938 2.539062 10.878906 C 2.550781 10.9375 2.554688 10.996094 2.5625 11.050781 C 2.578125 11.144531 2.597656 11.238281 2.613281 11.328125 C 2.628906 11.398438 2.640625 11.46875 2.652344 11.539062 C 2.65625 11.546875 2.660156 11.554688 2.664062 11.5625 C 2.808594 12.238281 3.023438 12.890625 3.308594 13.507812 C 3.316406 13.527344 3.328125 13.546875 3.335938 13.566406 C 3.445312 13.796875 3.5625 14.019531 3.6875 14.242188 C 3.734375 14.328125 3.785156 14.410156 3.835938 14.492188 C 3.914062 14.617188 3.996094 14.742188 4.078125 14.863281 C 4.492188 15.480469 4.972656 16.058594 5.527344 16.570312 L 5.550781 16.867188 C 5.542969 16.921875 5.53125 16.976562 5.519531 17.03125 C 5.5 17.132812 5.480469 17.238281 5.457031 17.332031 C 5.433594 17.414062 5.40625 17.492188 5.378906 17.570312 C 5.359375 17.632812 5.339844 17.695312 5.316406 17.753906 C 5.285156 17.832031 5.246094 17.90625 5.207031 17.980469 L 3.1875 14.753906 L 1.109375 13.921875 L 1.109375 12.210938 C 1.109375 11.613281 1.3125 11.03125 1.679688 10.558594 Z M 4.210938 19.070312 C 3.085938 18.585938 2.238281 17.785156 1.691406 16.679688 C 1.421875 16.136719 1.25 15.539062 1.167969 14.902344 L 2.589844 15.46875 L 4.640625 18.753906 C 4.472656 18.910156 4.316406 19.015625 4.210938 19.070312 Z M 5.648438 18.960938 C 5.726562 18.863281 5.796875 18.753906 5.867188 18.632812 C 5.871094 18.632812 5.871094 18.632812 5.871094 18.628906 C 5.929688 18.53125 5.984375 18.429688 6.039062 18.316406 C 6.050781 18.292969 6.058594 18.269531 6.070312 18.246094 C 6.109375 18.160156 6.148438 18.070312 6.183594 17.980469 C 6.195312 17.941406 6.210938 17.902344 6.222656 17.863281 C 6.25 17.785156 6.273438 17.703125 6.296875 17.617188 C 6.308594 17.585938 6.320312 17.554688 6.328125 17.523438 L 7.652344 18.109375 L 7.082031 19.964844 C 6.453125 19.558594 5.9375 19.183594 5.648438 18.964844 Z M 7.863281 20.449219 L 8.472656 18.476562 L 9.519531 18.941406 L 9.867188 20.816406 L 9.988281 21.492188 C 9.269531 21.226562 8.535156 20.84375 7.863281 20.449219 Z M 13.554688 23.109375 L 11.332031 23.109375 C 11.25 23.109375 11.179688 23.050781 11.164062 22.960938 L 11.027344 22.222656 L 13.847656 22.222656 L 13.726562 22.96875 C 13.710938 23.050781 13.640625 23.109375 13.554688 23.109375 Z M 15.316406 18.816406 L 15.324219 18.761719 C 15.328125 18.746094 15.332031 18.734375 15.335938 18.71875 L 15.90625 18.433594 L 16.507812 20.386719 C 16.015625 20.710938 15.464844 21.035156 14.902344 21.292969 Z M 17.273438 19.851562 L 16.710938 18.03125 L 17.679688 17.546875 C 17.6875 17.574219 17.695312 17.605469 17.707031 17.632812 C 17.730469 17.714844 17.753906 17.796875 17.78125 17.875 C 17.792969 17.914062 17.808594 17.953125 17.820312 17.988281 C 17.859375 18.082031 17.894531 18.171875 17.933594 18.257812 C 17.945312 18.28125 17.953125 18.300781 17.964844 18.324219 C 18.082031 18.566406 18.210938 18.78125 18.351562 18.960938 L 18.359375 18.984375 C 18.136719 19.179688 17.75 19.5 17.273438 19.851562 Z M 19.789062 19.070312 C 19.683594 19.015625 19.527344 18.910156 19.359375 18.753906 L 21.410156 15.46875 L 22.832031 14.902344 C 22.75 15.539062 22.578125 16.136719 22.308594 16.679688 C 21.761719 17.785156 20.914062 18.585938 19.789062 19.070312 Z M 19.789062 19.070312"/>
    <path d="M9.109375 12.890625C9.226562 12.890625 9.339844 12.84375 9.425781 12.757812L12.09375 10.09375C12.265625 9.917969 12.265625 9.636719 12.09375 9.464844 11.917969 9.289062 11.636719 9.289062 11.464844 9.464844L8.796875 12.128906C8.625 12.304688 8.625 12.585938 8.796875 12.757812 8.882812 12.84375 8.996094 12.890625 9.109375 12.890625zM11.019531 12.757812C11.105469 12.84375 11.21875 12.890625 11.332031 12.890625 11.445312 12.890625 11.5625 12.84375 11.648438 12.757812L12.980469 11.425781C13.15625 11.25 13.15625 10.96875 12.980469 10.796875 12.808594 10.625 12.527344 10.625 12.351562 10.796875L11.019531 12.128906C10.84375 12.304688 10.84375 12.585938 11.019531 12.757812zM11.019531 12.757812"/>
</svg>

<svg xmlns="http://www.w3.org/2000/svg" width="32" height="32" viewBox="0 0 24 24">
    <path d="M23.77 14.195c.003-.043.007-.086.007-.129v-1.855a3.6 3.6 0 0 0-.78-2.234l-1.485-1.325c-.004-.02-.004-.039-.004-.058-.02-.2-.059-.39-.09-.586-.02-.117-.027-.238-.05-.352l-.005-.004C20.48 3.293 16.617 0 12 0 7.383 0 3.52 3.293 2.637 7.652c-.02.086-.028.176-.04.262-.038.227-.081.45-.105.68 0 .02 0 .039-.004.054l-1.43 1.274-.054.055a3.6 3.6 0 0 0-.781 2.234v1.855c0 .043.004.086.007.13-.003.027 0 .058.004.09.028 1.015.243 1.956.66 2.788A5.86 5.86 0 0 0 4.06 19.97l.156.062.156-.054c.027-.012.3-.114.645-.38.668.516 3.015 2.243 5.156 2.887l.117.63a1.05 1.05 0 0 0 1.043.886h2.223c.52 0 .96-.371 1.047-.887l.128-.789c1.903-.726 3.692-2.21 4.266-2.715.34.258.61.356.637.368l.152.054.156-.062a5.853 5.853 0 0 0 3.164-2.89c.418-.837.633-1.778.66-2.794.005-.031.008-.062.005-.09zm-.88-1.984v1.71l-2.078.833-2.019 3.226a2.417 2.417 0 0 1-.11-.226c-.023-.059-.042-.121-.062-.184a4.252 4.252 0 0 1-.078-.238c-.023-.094-.043-.2-.063-.3l-.035-.165.028-.285a9.528 9.528 0 0 0 2.867-5.023c0-.008.004-.012.008-.02.015-.082.027-.16.043-.242l.058-.332c.004-.027.004-.055.008-.082.008-.043.012-.09.02-.137l.035-.312c.008-.07.011-.141.015-.215.008-.094.016-.192.016-.29.004-.019.008-.034.008-.054l.77.684c.366.472.57 1.054.57 1.652zM4.606 14.047l-.164-.277a8.42 8.42 0 0 1-.316-.622c-.012-.023-.023-.043-.035-.07-.082-.183-.149-.371-.219-.562a29.482 29.482 0 0 0 3.285 1.914c1.293.664 1.293.664 1.996 3.156l.012.047c-1.836-.625-3.348-1.793-4.371-3.301-.063-.094-.129-.187-.188-.285zM3.5 11.19a6.83 6.83 0 0 1-.078-.48c-.012-.078-.027-.152-.035-.23a8.816 8.816 0 0 1-.055-.926c0-.043.008-.09.008-.133 0-.031.004-.063.004-.102.008-.183.011-.367.027-.55.008-.082.02-.168.031-.25.008-.086.024-.168.04-.254l5.585 1.058a.445.445 0 0 0 .48-.238l.766-1.531h3.895l.77 1.53c.09.18.289.278.484.24l5.14-1.055c.012.085.028.168.036.25.011.085.023.168.03.253.013.168.02.34.024.512v.008c0 .035.004.07.008.105 0 .051.008.106.008.157 0 .285-.02.566-.047.847l-.012.082c-.007.075-.02.149-.03.223a6.48 6.48 0 0 1-.079.48l-.086.063a70.165 70.165 0 0 1-3.305 2.156c-1.683 1.043-1.761 1.145-2.062 2.656-.086.426-.195.973-.383 1.715H10.13c-.04-.148-.082-.297-.121-.433-.766-2.707-.809-2.867-2.45-3.703-.792-.407-1.988-1.02-3.972-2.391zm14.117 4.954l-.004.011a8.48 8.48 0 0 1-1.941 1.242c.11-.468.183-.847.246-1.16.238-1.195.238-1.195 1.66-2.074.582-.36 1.41-.875 2.55-1.64a8.769 8.769 0 0 1-2.378 3.503zm-3.18 2.52l-.144.89h-3.754l-.168-.903zM17.11 8.07V5.516l1.528-1.524a8.6 8.6 0 0 1 1.746 3.406zm-.757-3.05a.444.444 0 0 0-.13.312v2.922l-.644.133-.738-1.473a.436.436 0 0 0-.395-.246h-1.777V.922a8.63 8.63 0 0 1 5.36 2.422zm-4.575 1.648H10a.447.447 0 0 0-.398.246l-.739 1.477-.64-.125V5.332a.444.444 0 0 0-.13-.312l-1.89-1.887a8.617 8.617 0 0 1 5.574-2.23zM7.332 5.516v2.582l-3.715-.703a8.669 8.669 0 0 1 1.957-3.637zm3.531 15.816l-.16-.887h3.442l-.149.887zM1.68 10.559l.77-.684c0 .016.003.031.003.05.004.106.012.208.02.313.004.07.011.14.015.211l.035.305c.008.039.012.082.016.125.012.059.016.117.023.172.016.094.036.187.051.277.016.07.028.14.04.211l.011.024c.145.675.36 1.328.645 1.945.007.02.02.039.027.058a11.077 11.077 0 0 0 .5.926c.078.125.16.25.242.371a9.558 9.558 0 0 0 1.45 1.707l.023.297c-.008.055-.02.11-.031.164-.02.102-.04.207-.063.301-.023.082-.05.16-.078.238-.02.063-.04.125-.063.184-.03.078-.07.152-.109.226l-2.02-3.226-2.078-.832V12.21c0-.598.204-1.18.57-1.652zm2.53 8.511a4.898 4.898 0 0 1-2.519-2.39 5.583 5.583 0 0 1-.523-1.778l1.422.567 2.05 3.285a2.08 2.08 0 0 1-.43.316zm1.438-.11a2.66 2.66 0 0 0 .22-.327c.003 0 .003 0 .003-.004.059-.098.113-.2.168-.313.012-.023.02-.046.031-.07.04-.086.078-.176.114-.266.011-.039.027-.078.039-.117.027-.078.05-.16.074-.246a.88.88 0 0 0 .031-.094l1.324.586-.57 1.856a24.376 24.376 0 0 1-1.434-1zm2.215 1.49l.61-1.973 1.047.464.347 1.875.121.676c-.718-.265-1.453-.648-2.125-1.043zm5.692 2.66h-2.223a.171.171 0 0 1-.168-.15l-.137-.737h2.82l-.12.746a.172.172 0 0 1-.172.14zm1.761-4.294l.008-.054.012-.043.57-.285.602 1.953c-.492.324-1.043.648-1.606.906zm1.957 1.036l-.562-1.82.969-.485c.008.027.015.058.027.086.023.082.047.164.074.242.012.04.028.078.04.113.038.094.074.184.113.27l.03.066c.118.242.247.457.388.637l.007.023c-.222.196-.609.516-1.086.868zm2.516-.782a2.08 2.08 0 0 1-.43-.316l2.051-3.285 1.422-.567a5.583 5.583 0 0 1-.523 1.778 4.898 4.898 0 0 1-2.52 2.39zm0 0"/>
    <path d="M9.11 12.89c.117 0 .23-.046.316-.132l2.668-2.664a.448.448 0 0 0 0-.63.44.44 0 0 0-.63 0L8.798 12.13a.448.448 0 0 0 .312.762zm0 0M11.02 12.758c.085.086.199.133.312.133.113 0 .23-.047.316-.133l1.332-1.332a.44.44 0 0 0 0-.63.448.448 0 0 0-.628 0L11.02 12.13a.44.44 0 0 0 0 .629zm0 0"/>
</svg>
